build/dist/assets/images/aboutClinic/specialist.svg

<svg width="41" height="40" viewBox="0 0 41 40" fill="none" xmlns="http://www.w3.org/2000/svg">
<path d="M6.25 3.29539C15.4167 3.12872 34.1291 3.17468 34.5291 3.57468C34.9135 3.95903 34.4554 18.8888 34.2711 27.3016C34.259 27.8529 33.8043 28.2872 33.253 28.2776C30.2673 28.2255 26.5076 28.1696 22.75 28.1296M6.25 3.29539V25.8811C6.25 26.772 7.75825 28.1418 8.6489 28.1203C10.6683 28.0714 13.7751 28.0656 17.25 28.0843M6.25 3.29539H2.75L38.25 3.29542M17.25 28.0843L12.75 36.7955M17.25 28.0843C19.0195 28.0938 20.8845 28.1097 22.75 28.1296M22.75 28.1296L27.75 36.7955M12.75 17.2955V23.2955M20.25 8.79548V23.2955M26.75 11.7955V23.2955" stroke="#003837" stroke-width="2" stroke-linecap="round" stroke-linejoin="round"/>
</svg>

<svg width="41" height="40" fill="none" xmlns="http://www.w3.org/2000/svg"><path d="M6.25 3.295c9.167-.166 27.88-.12 28.28.28.383.384-.075 15.314-.259 23.727a.998.998 0 01-1.018.976 1595.96 1595.96 0 00-10.503-.148M6.25 3.295v22.586c0 .891 1.508 2.26 2.399 2.24 2.02-.05 5.126-.055 8.601-.037m-11-24.789h-3.5 35.5m-21 24.79l-4.5 8.71m4.5-8.71c1.77.009 3.634.025 5.5.045m0 0l5 8.665m-15-19.5v6m7.5-14.5v14.5m6.5-11.5v11.5" stroke="#003837" stroke-width="2" stroke-linecap="round" stroke-linejoin="round"/></svg>
